X:99
T: O SAG MIR AN FRAU MUTTER LIEB
N: B0128
O: Europa, Mitteleuropa, Deutschland, Niederrhein
R: Ballade, Romanze
M: 6/8
L: 1/16
K: D
DE | =F4E2D4A_B | =c4_B2A4
A2 | G4A2G2=F2E2 | =F4G2A4
A2 | _B4=c2d4A2 | _B2A2^G2A4
E2 | =F4G2A2G2F2 | G2=F2E2D4

@@@ Tune index: 1902
